icons/comment-24.svg

<svg width="24" height="24" viewBox="0 0 24 24" xmlns="http://www.w3.org/2000/svg">
  <path fill-rule="evenodd" clip-rule="evenodd" d="M3.25 4C3.11193 4 3 4.11193 3 4.25V16.75C3 16.8881 3.11193 17 3.25 17H5.75C6.16421 17 6.5 17.3358 6.5 17.75V20.9393L10.2197 17.2197C10.3603 17.079 10.5511 17 10.75 17H20.75C20.8881 17 21 16.8881 21 16.75V4.25C21 4.11193 20.8881 4 20.75 4H3.25ZM1.5 4.25C1.5 3.2835 2.2835 2.5 3.25 2.5H20.75C21.7165 2.5 22.5 3.2835 22.5 4.25V16.75C22.5 17.7165 21.7165 18.5 20.75 18.5H11.0607L7.48744 22.0732C7.21418 22.3465 6.84356 22.5 6.45711 22.5C5.65237 22.5 5 21.8476 5 21.0429V18.5H3.25C2.2835 18.5 1.5 17.7165 1.5 16.75V4.25Z"/>
</svg>

<svg xmlns="http://www.w3.org/2000/svg" width="24" height="24" viewBox="0 0 24 24"><path fill-rule="evenodd" d="M3.25 4a.25.25 0 00-.25.25v12.5c0 .138.112.25.25.25h2.5a.75.75 0 01.75.75v3.19l3.72-3.72a.75.75 0 01.53-.22h10a.25.25 0 00.25-.25V4.25a.25.25 0 00-.25-.25H3.25zm-1.75.25c0-.966.784-1.75 1.75-1.75h17.5c.966 0 1.75.784 1.75 1.75v12.5a1.75 1.75 0 01-1.75 1.75h-9.69l-3.573 3.573A1.457 1.457 0 015 21.043V18.5H3.25a1.75 1.75 0 01-1.75-1.75V4.25z"/></svg>
